shared/images/iconfont/34-kb-iconfont-folder-dropdown-16.svg

<?xml version="1.0" encoding="UTF-8"?>
<svg width="16px" height="16px" viewBox="0 0 16 16" version="1.1" xmlns="http://www.w3.org/2000/svg" xmlns:xlink="http://www.w3.org/1999/xlink">
    <!-- Generator: sketchtool 57.1 (101010) - https://sketch.com -->
    <title>A09FF59F-A42A-460B-BB2F-0AF054391D7E</title>
    <desc>Created with sketchtool.</desc>
    <g id="Symbols" stroke="none" stroke-width="1" fill="none" fill-rule="evenodd">
        <g id="34-kb-iconfont-folder-dropdown-16">
            <g>
                <rect id="icon-area" opacity="0" x="0" y="0" width="16" height="16"></rect>
                <path d="M5.9999,1 L7.33324667,3 L14.6666533,3 C15.4030251,3.00003682 16,3.76362822 16,4.5 L16,4.5 L16,13.5 C16,14.2363718 15.4030251,15 14.6666533,15 L14.6666533,15 L1.33334667,15 C0.596974887,15 0,14.2363718 0,13.5 L0,13.5 L0,2.33334667 C0,1.59697489 0.596974887,1 1.33334667,1 L1.33334667,1 L5.9999,1 Z M9.92118229,8 L6.07882144,8 C5.9890584,8 5.90242961,8.03053304 5.83542715,8.08578635 C5.68464592,8.21012748 5.67138491,8.4239907 5.80580787,8.56346323 L5.80580787,8.56346323 L7.72698829,10.5568125 L7.72698829,10.5568125 L7.75660758,10.5842103 C7.90738881,10.7085514 8.13859248,10.696285 8.27301543,10.5568125 L8.27301543,10.5568125 L10.1941959,8.56346323 C10.2539292,8.50148601 10.2869379,8.42135444 10.2869379,8.3383237 C10.2869379,8.15147268 10.1231836,8 9.92118229,8 L9.92118229,8 Z" id="folder" fill="#000000"></path>
            </g>
        </g>
    </g>
</svg>

<svg xmlns="http://www.w3.org/2000/svg" width="16" height="16" viewBox="0 0 16 16">
    <path fill="#000" fill-rule="evenodd" d="M6 1l1.333 2h7.334C15.403 3 16 3.764 16 4.5v9c0 .736-.597 1.5-1.333 1.5H1.333C.597 15 0 14.236 0 13.5V2.333C0 1.597.597 1 1.333 1H6zM9.92 8H6.08c-.09 0-.177.03-.244.086a.32.32 0 0 0-.03.477l1.922 1.994.03.027c.15.125.382.112.516-.027l1.921-1.994a.324.324 0 0 0 .093-.225c0-.187-.164-.338-.366-.338z"/>
</svg>
